public/avatar/body/103.svg

<svg xmlns:xlink="http://www.w3.org/1999/xlink" height="82" width="84.85" xmlns="http://www.w3.org/2000/svg"><g transform="translate(37.4 42.25)"><use height="38" transform="translate(-11.95 -17.45)" width="32.05" xlink:href="#a"/><use height="38.95" transform="translate(-12.45 -17.95)" width="33.05" xlink:href="#b"/><use height="21.2" transform="translate(-13.6 .05)" width="36.35" xlink:href="#c"/></g><defs><path d="M27.35 7.4q2.15 4.15 3.55 8.75 1.45 4.7 1.15 9.5-.35 4.95-4.2 8.1-3.8 3.2-8.75 4.05l-2.6.2q-3.6 0-7.05-1.15-4.65-1.6-7.1-5.5Q-.2 27.4.05 23q.2-4.4 2-9.3Q3.85 8.75 7 5.05 10.1 1.3 14.7.1l1.8-.1q1.9.05 3.7.8 4.75 2.05 7.15 6.6" fill="#cfa677" fill-rule="evenodd" transform="translate(-.05)" id="d"/><path d="M27.35 7.4Q24.95 2.85 20.2.8 17.55-.3 14.7.1 10.1 1.3 7 5.05q-3.15 3.7-4.95 8.65-1.8 4.9-2 9.3-.25 4.4 2.3 8.35 2.45 3.9 7.1 5.5 4.65 1.55 9.65.95 4.95-.85 8.75-4.05 3.85-3.15 4.2-8.1.3-4.8-1.15-9.5-1.4-4.6-3.55-8.75Z" fill="none" stroke="#161616" stroke-linecap="round" stroke-linejoin="round" transform="translate(.45 .5)" id="e"/><use height="38" width="32.05" xlink:href="#d" id="a"/><use height="38.95" width="33.05" xlink:href="#e" id="b"/><g id="c"><path d="M21.75 1.95q1.9 2.15.1 5.3l-.6 1.4q0 .6-.75 2.05L19 13.95q-.7 4-1.7 4.75-1.8 1.3-3.65 1.65l-3.95.45-1.05.2-.4-.05-.2-.1-.5.1-.15.05-2.3.2v.05l-.75-.05h-.5l-7.8-1q-4.1-1-5.2-2.25l-1.15-2.75q-.5-1.8-1.15-2.7-1.85-2.9-2.1-6.4-.15-3.8.55-4.95.75-.9 1.7-1.1l-.3 1.4-.45.45-.35.6-.15 3.55.1.55q.5 3.8 1.65 5.45 1.35 2 2.3 5.45.75 1.05 4.7 2l8.1.95h.05l3.95-.2-.7.65 1.75-.75.35.1.5-.2.65-.1q4-.4 6-1.85.85-.6 1.4-4.3l1.6-3.45.7-1.85.5-1.4.15-.25q1.25-3.1 0-4.35l-.8-.75-.05-.05-.15-.75h.1l1.45 1m-14.2 19 .05-.05-.2.05h.15" fill-rule="evenodd" transform="translate(13.6 -.05)"/><path d="M21.05 7.1q1.05-3.5-1.9-2.65l.05-.15q0-.5-.5-.5t-.5.5l-.15.65Q15.1 6.7 13.85 9.1l-2.9 6.1-.7 1.5-.4-7.15q0-.55-.5-.7 1.4-1.1 2.65-3.05 4.05-3.5 5.25-4.2l2.95.2 1 .7q1.25 1.25 0 4.35l-.15.25M8.35 9.6l.6 9.8-.65.85-3.95.2H4.3l-8.1-.95q-3.95-.95-4.7-2-.95-3.45-2.3-5.45-1.15-1.65-1.65-5.45l.05-4.1q1-2.75 3.9-.5l5.1 3.8 2.45 2.85Q1 10.5 4.35 10.5q2.25 0 4-.95v.05m10.6 1.9 1.6-3-.7 1.85-1.6 3.45q.3-1.75.7-2.3" fill="red" fill-rule="evenodd" transform="translate(13.6 -.05)"/><path d="m-9.15 4.9 1.85 12.4" fill="none" stroke="#ffc300" stroke-linecap="round" stroke-linejoin="round" transform="translate(13.6 -.05)"/><path d="m13.85 9.95-.05 9.4m4.55-7.25-.15 7.7" fill="none" stroke="#ffc300" stroke-linecap="round" stroke-linejoin="round" stroke-width="1.5"/><path d="m9.85 9.55.4 7.15-1.3 2.7-.6-9.8v-.05q0-.75.75-.75t.75.75m-.5 10.6.15-.1.75-.05-.55.25-.35-.1M18.2 4.3q0-.5.5-.5t.5.5l-.05.15-.05.05-1.05.45.15-.65" fill="#ffc300" fill-rule="evenodd" transform="translate(13.6 -.05)"/><path d="M10.85 8.25Q6.75 14 4.6 14q-2.1 0-6.25-5.25 2.9 1.75 6 1.75 3.15 0 6.5-2.25" fill="red" fill-rule="evenodd" transform="translate(13.6 -.05)"/><path d="m7.6 20.9.7-.65 1-.1h.05l-1.75.75m9.25-2.8q-2 1.45-6 1.85 4.9-.85 6.45-2.45l.7-2.35q-.1-.25.25-1.35-.55 3.7-1.4 4.3" fill="#0d171d" fill-rule="evenodd" transform="translate(13.6 -.05)"/><path d="m20.55 8.5-1.6 3q-.4.55-.7 2.3-.35 1.1-.25 1.35l-.7 2.35q-1.55 1.6-6.45 2.45l-.6.05.2-.5v-.05l-.2-2.75.7-1.5 2.9-6.1q1.25-2.4 4.2-4.15l-1.95 12.1v.1q0 .5.5.5l.5-.45 2.05-12.75q2.95-.85 1.9 2.65-.4.65-.5 1.4M8.95 19.4v.15q0 .35.35.6l-1 .1.65-.85" fill="#d9171d" fill-rule="evenodd" transform="translate(13.6 -.05)"/><path d="M8.95 19.55v-.15l1.3-2.7.2 2.75v.05l-.2.5-.75.05-.15.1q-.4-.15-.4-.6m7.15-2.4v-.1l1.95-12.1 1.05-.45.05-.05L17.1 17.2l-.5.45q-.5 0-.5-.5" fill="#d9b31d" fill-rule="evenodd" transform="translate(13.6 -.05)"/><path d="M-7.9 17.1q3.65 2.75 12.5 2.75 8.9 0 11.65-2.25" fill="none" stroke="#c72525" stroke-linecap="round" stroke-linejoin="round" transform="translate(13.6 -.05)"/><path d="M21.25 2.5v4.35M-12 2.6l-.05 3.9" fill="none" stroke="#ffc300" stroke-linecap="round" stroke-linejoin="round" transform="translate(13.6 -.05)"/><path d="M16.1 7.85q-2.35 1.75-9 2.65L10 7.85Q12.1 5.1 13.25 4q1.15-1.2 4.35-2.4 1.4-.5 3.15.4-2.25 4.1-4.65 5.85m-17.6 0 2.85 2.65q-6.6-.9-9-2.65Q-9.3 6.6-9.8 3.9q-.45-2.7.65-2.3 3.1 1.1 4.4 2.4 1.1 1.1 3.25 3.85" fill="red" fill-rule="evenodd" transform="translate(13.6 -.05)"/><path d="M-.15 9.75 1 10.4q1.55.6 3.25.6Q7 11 8.85 9.75" fill="none" stroke="#ffc300" stroke-linecap="round" stroke-linejoin="round" transform="translate(13.6 -.05)"/><path d="M15.35 9.5v4L13 15.75l-1.4-1.65.25-3.85 3.5-.75" fill="#ffd500" fill-rule="evenodd" transform="translate(13.6 -.05)"/><path d="m-10.8 1.15 2 .6q2.3.8 3.5 1.9Q-3.4 5.4-.25 9.4m9.5-.65q3.1-4 4.85-5.25 1.75-1.25 4.25-2.2l.65-.05" fill="none" stroke="#c72525" stroke-linecap="round" stroke-linejoin="round" transform="translate(13.6 -.05)"/><path d="M10.85 9.05q-.8-.45-1.65-.75-1.65-.7-1.65-.15 0 2.45.2 2.8.05.1 1.7.8 1.4.55 1.5 2.1.2 2.6-2.6 1.7" fill="none" stroke="#ffc300" stroke-linecap="round" stroke-linejoin="round" stroke-width="1.5"/></g></defs></svg>

<?xml version="1.0" encoding="UTF-8" standalone="no"?>
<svg xmlns:xlink="http://www.w3.org/1999/xlink" height="82.0px" width="84.85px" xmlns="http://www.w3.org/2000/svg">
  <g transform="matrix(1.0, 0.0, 0.0, 1.0, 37.4, 42.25)">
    <use height="38.0" transform="matrix(1.0, 0.0, 0.0, 1.0, -11.95, -17.45)" width="32.05" xlink:href="#sprite0"/>
    <use height="38.95" transform="matrix(1.0, 0.0, 0.0, 1.0, -12.45, -17.95)" width="33.05" xlink:href="#sprite1"/>
    <use height="21.2" transform="matrix(1.0, 0.0, 0.0, 1.0, -13.6, 0.05)" width="36.35" xlink:href="#shape2"/>
  </g>
  <defs>
    <g id="sprite0" transform="matrix(1.0, 0.0, 0.0, 1.0, -0.05, 0.0)">
      <use height="38.0" transform="matrix(1.0, 0.0, 0.0, 1.0, 0.05, 0.0)" width="32.05" xlink:href="#shape0"/>
    </g>
    <g id="shape0" transform="matrix(1.0, 0.0, 0.0, 1.0, -0.05, 0.0)">
      <path d="M27.35 7.4 Q29.5 11.55 30.9 16.15 32.35 20.85 32.05 25.65 31.7 30.6 27.85 33.75 24.05 36.95 19.1 37.8 L16.5 38.0 Q12.9 38.0 9.45 36.85 4.8 35.25 2.35 31.35 -0.2 27.4 0.05 23.0 0.25 18.6 2.05 13.7 3.85 8.75 7.0 5.05 10.1 1.3 14.7 0.1 L16.5 0.0 Q18.4 0.05 20.2 0.8 24.95 2.85 27.35 7.4" fill="#cfa677" fill-rule="evenodd" stroke="none"/>
    </g>
    <g id="sprite1" transform="matrix(1.0, 0.0, 0.0, 1.0, 0.45, 0.5)">
      <use height="38.95" transform="matrix(1.0, 0.0, 0.0, 1.0, -0.45, -0.5)" width="33.05" xlink:href="#shape1"/>
    </g>
    <g id="shape1" transform="matrix(1.0, 0.0, 0.0, 1.0, 0.45, 0.5)">
      <path d="M27.35 7.4 Q24.95 2.85 20.2 0.8 17.55 -0.3 14.7 0.1 10.1 1.3 7.0 5.05 3.85 8.75 2.05 13.7 0.25 18.6 0.05 23.0 -0.2 27.4 2.35 31.35 4.8 35.25 9.45 36.85 14.1 38.4 19.1 37.8 24.05 36.95 27.85 33.75 31.7 30.6 32.05 25.65 32.35 20.85 30.9 16.15 29.5 11.55 27.35 7.4 Z" fill="none" stroke="#161616" stroke-linecap="round" stroke-linejoin="round" stroke-width="1.0"/>
    </g>
    <g id="shape2" transform="matrix(1.0, 0.0, 0.0, 1.0, 13.6, -0.05)">
      <path d="M21.75 1.95 Q23.65 4.1 21.85 7.25 L21.25 8.65 Q21.25 9.25 20.5 10.7 L19.0 13.95 Q18.3 17.95 17.3 18.7 15.5 20.0 13.65 20.35 L9.7 20.8 8.65 21.0 8.25 20.95 8.05 20.85 7.55 20.95 7.4 21.0 5.1 21.2 5.1 21.25 4.35 21.2 3.85 21.2 -3.95 20.2 Q-8.05 19.2 -9.15 17.95 L-10.3 15.2 Q-10.8 13.4 -11.45 12.5 -13.3 9.6 -13.55 6.1 -13.7 2.3 -13.0 1.15 -12.25 0.25 -11.3 0.05 L-11.6 1.45 -12.05 1.9 -12.4 2.5 -12.55 6.05 -12.45 6.6 Q-11.95 10.4 -10.8 12.05 -9.45 14.05 -8.5 17.5 -7.75 18.55 -3.8 19.5 L4.3 20.45 4.35 20.45 8.3 20.25 7.6 20.9 9.35 20.15 9.7 20.25 10.2 20.05 10.85 19.95 Q14.85 19.55 16.85 18.1 17.7 17.5 18.25 13.8 L19.85 10.35 20.55 8.5 21.05 7.1 21.2 6.85 Q22.45 3.75 21.2 2.5 L20.4 1.75 20.35 1.7 20.2 0.95 20.3 0.95 21.75 1.95 M7.55 20.95 L7.6 20.9 7.4 20.95 7.55 20.95" fill="#000000" fill-rule="evenodd" stroke="none"/>
      <path d="M21.05 7.1 Q22.1 3.6 19.15 4.45 L19.2 4.3 Q19.2 3.8 18.7 3.8 18.2 3.8 18.2 4.3 L18.05 4.95 Q15.1 6.7 13.85 9.1 L10.95 15.2 10.25 16.7 9.85 9.55 Q9.85 9.0 9.35 8.85 10.75 7.75 12.0 5.8 16.05 2.3 17.25 1.6 L20.2 1.8 21.2 2.5 Q22.45 3.75 21.2 6.85 L21.05 7.1 M8.35 9.6 L8.95 19.4 8.3 20.25 4.35 20.45 4.3 20.45 -3.8 19.5 Q-7.75 18.55 -8.5 17.5 -9.45 14.05 -10.8 12.05 -11.95 10.4 -12.45 6.6 L-12.4 2.5 Q-11.4 -0.25 -8.5 2.0 L-3.4 5.8 -0.95 8.65 Q1.0 10.5 4.35 10.5 6.6 10.5 8.35 9.55 L8.35 9.6 M18.95 11.5 L20.55 8.5 19.85 10.35 18.25 13.8 Q18.55 12.05 18.95 11.5" fill="#ff0000" fill-rule="evenodd" stroke="none"/>
      <path d="M-9.15 4.9 L-7.3 17.3" fill="none" stroke="#ffc300" stroke-linecap="round" stroke-linejoin="round" stroke-width="1.0"/>
      <path d="M0.25 10.0 L0.2 19.4" fill="none" stroke="#ffc300" stroke-linecap="round" stroke-linejoin="round" stroke-width="1.5"/>
      <path d="M4.75 12.15 L4.6 19.85" fill="none" stroke="#ffc300" stroke-linecap="round" stroke-linejoin="round" stroke-width="1.5"/>
      <path d="M9.85 9.55 L10.25 16.7 8.95 19.4 8.35 9.6 8.35 9.55 Q8.35 8.8 9.1 8.8 9.85 8.8 9.85 9.55 M9.35 20.15 L9.5 20.05 10.25 20.0 9.7 20.25 9.35 20.15" fill="#ffc300" fill-rule="evenodd" stroke="none"/>
      <path d="M18.2 4.3 Q18.2 3.8 18.7 3.8 19.2 3.8 19.2 4.3 L19.15 4.45 19.1 4.5 18.05 4.95 18.2 4.3" fill="#ffc300" fill-rule="evenodd" stroke="none"/>
      <path d="M10.85 8.25 Q6.75 14.0 4.6 14.0 2.5 14.0 -1.65 8.75 1.25 10.5 4.35 10.5 7.5 10.5 10.85 8.25" fill="#ff0000" fill-rule="evenodd" stroke="none"/>
      <path d="M7.6 20.9 L8.3 20.25 9.3 20.15 9.35 20.15 7.6 20.9 M16.85 18.1 Q14.85 19.55 10.85 19.95 15.75 19.1 17.3 17.5 L18.0 15.15 Q17.9 14.9 18.25 13.8 17.7 17.5 16.85 18.1" fill="#0d171d" fill-rule="evenodd" stroke="none"/>
      <path d="M20.55 8.5 L18.95 11.5 Q18.55 12.05 18.25 13.8 17.9 14.9 18.0 15.15 L17.3 17.5 Q15.75 19.1 10.85 19.95 L10.25 20.0 10.45 19.5 10.45 19.45 10.25 16.7 10.95 15.2 13.85 9.1 Q15.1 6.7 18.05 4.95 L16.1 17.05 16.1 17.15 Q16.1 17.65 16.6 17.65 L17.1 17.2 19.15 4.45 Q22.1 3.6 21.05 7.1 20.65 7.75 20.55 8.5 M8.95 19.4 L8.95 19.55 Q8.95 19.9 9.3 20.15 L8.3 20.25 8.95 19.4" fill="#d9171d" fill-rule="evenodd" stroke="none"/>
      <path d="M8.95 19.55 L8.95 19.4 10.25 16.7 10.45 19.45 10.45 19.5 10.25 20.0 9.5 20.05 9.35 20.15 Q8.95 20.0 8.95 19.55" fill="#d9b31d" fill-rule="evenodd" stroke="none"/>
      <path d="M16.1 17.15 L16.1 17.05 18.05 4.95 19.1 4.5 19.15 4.45 17.1 17.2 16.6 17.65 Q16.1 17.65 16.1 17.15" fill="#d9b31d" fill-rule="evenodd" stroke="none"/>
      <path d="M-7.9 17.1 Q-4.25 19.85 4.6 19.85 13.5 19.85 16.25 17.6" fill="none" stroke="#c72525" stroke-linecap="round" stroke-linejoin="round" stroke-width="1.0"/>
      <path d="M21.25 2.5 L21.25 6.85" fill="none" stroke="#ffc300" stroke-linecap="round" stroke-linejoin="round" stroke-width="1.0"/>
      <path d="M-12.0 2.6 L-12.05 6.5" fill="none" stroke="#ffc300" stroke-linecap="round" stroke-linejoin="round" stroke-width="1.0"/>
      <path d="M16.1 7.85 Q13.75 9.6 7.1 10.5 L10.0 7.85 Q12.1 5.1 13.25 4.0 14.4 2.8 17.6 1.6 19.0 1.1 20.75 2.0 18.5 6.1 16.1 7.85" fill="#ff0000" fill-rule="evenodd" stroke="none"/>
      <path d="M-1.5 7.85 L1.35 10.5 Q-5.25 9.6 -7.65 7.85 -9.3 6.6 -9.8 3.9 -10.25 1.2 -9.15 1.6 -6.05 2.7 -4.75 4.0 -3.65 5.1 -1.5 7.85" fill="#ff0000" fill-rule="evenodd" stroke="none"/>
      <path d="M-0.15 9.75 L1.0 10.4 Q2.55 11.0 4.25 11.0 7.0 11.0 8.85 9.75" fill="none" stroke="#ffc300" stroke-linecap="round" stroke-linejoin="round" stroke-width="1.0"/>
      <path d="M15.35 9.5 L15.35 13.5 13.0 15.75 11.6 14.1 11.85 10.25 15.35 9.5" fill="#ffd500" fill-rule="evenodd" stroke="none"/>
      <path d="M-10.8 1.15 L-8.8 1.75 Q-6.5 2.55 -5.3 3.65 -3.4 5.4 -0.25 9.4" fill="none" stroke="#c72525" stroke-linecap="round" stroke-linejoin="round" stroke-width="1.0"/>
      <path d="M9.25 8.75 Q12.35 4.75 14.1 3.5 15.85 2.25 18.35 1.3 L19.0 1.25" fill="none" stroke="#c72525" stroke-linecap="round" stroke-linejoin="round" stroke-width="1.0"/>
      <path d="M-2.75 9.1 Q-3.55 8.65 -4.4 8.35 -6.05 7.65 -6.05 8.2 -6.05 10.65 -5.85 11.0 -5.8 11.1 -4.15 11.8 -2.75 12.35 -2.65 13.9 -2.45 16.5 -5.25 15.6" fill="none" stroke="#ffc300" stroke-linecap="round" stroke-linejoin="round" stroke-width="1.5"/>
    </g>
  </defs>
</svg>
